apps/app.mento.org/public/tokens/KESm.svg

<svg width="220" height="220" viewBox="0 0 220 220" fill="none" xmlns="http://www.w3.org/2000/svg">
<path d="M110 220C170.751 220 220 170.751 220 110C220 49.2487 170.751 0 110 0C49.2487 0 0 49.2487 0 110C0 170.751 49.2487 220 110 220Z" fill="#510DC1"/>
<path d="M110 215C167.99 215 215 167.99 215 110C215 52.0101 167.99 5 110 5C52.0101 5 5 52.0101 5 110C5 167.99 52.0101 215 110 215Z" fill="url(#paint0_linear_2057_343)"/>
<path d="M110 202C160.81 202 202 160.81 202 110C202 59.1898 160.81 18 110 18C59.1898 18 18 59.1898 18 110C18 160.81 59.1898 202 110 202Z" fill="#510DC1"/>
<path d="M156 60H130.44L84.5091 107.64V60H64V160H84.5091V131.528L101.363 114.721L131.42 160H139.722L105.766 110.279L111.005 105L148.562 160H156L115.408 100.559L156 60Z" fill="url(#paint1_linear_2057_343)"/>
<defs>
<linearGradient id="paint0_linear_2057_343" x1="110" y1="5" x2="110" y2="215" gradientUnits="userSpaceOnUse">
<stop stop-color="#1A9900"/>
<stop offset="1" stop-color="#FF0000"/>
</linearGradient>
<linearGradient id="paint1_linear_2057_343" x1="110" y1="60" x2="110" y2="160" gradientUnits="userSpaceOnUse">
<stop stop-color="#E2DBFF"/>
<stop offset="0.975962" stop-color="#FBFAFF"/>
</linearGradient>
</defs>
</svg>

<svg xmlns="http://www.w3.org/2000/svg" width="220" height="220" fill="none" viewBox="0 0 220 220"><path fill="#510dc1" d="M110 220c60.751 0 110-49.249 110-110S170.751 0 110 0 0 49.249 0 110s49.249 110 110 110"/><path fill="url(#a)" d="M110 215c57.99 0 105-47.01 105-105S167.99 5 110 5 5 52.01 5 110s47.01 105 105 105"/><path fill="#510dc1" d="M110 202c50.81 0 92-41.19 92-92s-41.19-92-92-92-92 41.19-92 92 41.19 92 92 92"/><path fill="url(#b)" d="M156 60h-25.56l-45.93 47.64V60H64v100h20.51v-28.472l16.853-16.807L131.42 160h8.302l-33.956-49.721 5.239-5.279 37.557 55H156l-40.592-59.441z"/><defs><linearGradient id="a" x1="110" x2="110" y1="5" y2="215" gradientUnits="userSpaceOnUse"><stop stop-color="#1a9900"/><stop offset="1" stop-color="red"/></linearGradient><linearGradient id="b" x1="110" x2="110" y1="60" y2="160" gradientUnits="userSpaceOnUse"><stop stop-color="#e2dbff"/><stop offset=".976" stop-color="#fbfaff"/></linearGradient></defs></svg>
